X: 115
T: Little Black Moustache
B: canberra pickers and fiddlers
B: old time tunes update
B: tunes
M:4/4
L:1/8
Q: 1/4=100
K:D
V:1 
AG|FDFG A2dc|BGBd g2ag|fedf edcA|BcdA BdAG|
FDFG A2dc|BGBd g2ag|fedf edce|d2f2 d2:|
|:A2|f4 a4-|a2ba ^g2a2|f4 f4-|f2e/fa/ g2f2|
e4 B4-|B2ed cABc|d8-|d2A2 F2A2|
f4 a4-|a2ba ^g2a2|f4 f4-|f2e/fa/ g2f2|
e4 B4-|B2ed cABc|d2cB AGFE|D6:|
% abcbook-tune_id 67a7d9ec56986c94dba5d33e
% abcbook-tune_composer_id 
% abcbook-link-0 https://www.youtube.com/watch?v=kYe6r_TIOo0
% abcbook-link-title-0 Little Black Mustache
% abcbook-boost 0
% abcbook-difficulty 0
% abcbook-tags old time tunes
% abcbook-tablature 
% abcbook-transpose -2
% abcbook-tuning GDAE
% abcbook-lastupdated 1739253092763
% abcbook-src-url 
% abcbook-soundfonts 
% abcbook-repeats 1
%%MIDI transpose -2
% Titles One title
% Transcriptions Only 1 transcription
% Movement Has lots of stepwise movement
% Movement Has some stepwise movement
% Mode major
% Key D
% Time_signature 4/4
% Has_accompaniment_chords No chords

